images/stocks/ASML.svg

<!-- by Finnhub --><svg width="56" height="56" xmlns="http://www.w3.org/2000/svg"><path fill="#0F238C" d="M0 0h56v56H0z"/><path d="M25 25.074c-3.177-2.676-7.887-1.749-7.935.701-.721-4.545 4.74-5.613 7.935-4.181v3.48zm-2.72 1.17c-.757-.265-1.634-.572-1.636-1.332 0-.358.108-.675.851-.912-2.562.246-3.372 3.17-.537 4.659.066.035.139.07.215.107.493.237 1.136.547 1.136 1.318 0 1.041-1.19 1.417-1.972 1.401-1.3-.026-2.145-.585-3.337-1.4v2.954c1.41.584 3.508 1.38 5.811.7 1.862-.55 3.189-2.052 3.189-3.655 0-2.471-1.863-3.159-3.175-3.643a37.863 37.863 0 01-.21-.078c-.107-.04-.22-.08-.335-.12zM12.17 21H7.83L4 34h3.83l.51-2.34h3.32l.51 2.34H16l-3.83-13zM10 23.86l1.149 5.33H8.85L10 23.86zm27.658 1.95L35.948 34h-2.895l-1.71-8.19-.659 8.19H27l1.71-13h3.948l1.842 7.8 1.842-7.8h3.947L42 34h-3.69l-.652-8.19zM44 21h3v10h5v3h-8V21z" fill="#fff"/></svg>

<?xml version="1.0" encoding="UTF-8"?>
<!-- generated by Finnhub -->
<svg viewBox="0 0 55.5 55.5" xmlns="http://www.w3.org/2000/svg">
<path d="M 0,0 H 55.5 V 55.5 H 0 Z" fill="rgb(14, 34, 138)"/>
<path d="M 24.99,25.059 C 21.823,22.398 17.113,23.325 17.065,25.775 C 16.344,21.23 21.805,20.162 25,21.594 V 25.074 Z M 22.28,26.244 C 21.523,25.979 20.646,25.672 20.644,24.912 C 20.644,24.554 20.752,24.237 21.495,24 C 18.933,24.246 18.123,27.17 20.958,28.659 C 21.024,28.694 21.097,28.729 21.173,28.766 C 21.666,29.003 22.309,29.313 22.309,30.084 C 22.309,31.125 21.119,31.501 20.337,31.485 C 19.037,31.459 18.192,30.9 17,30.085 V 33.039 C 18.41,33.623 20.508,34.419 22.811,33.739 C 24.673,33.189 26,31.687 26,30.084 C 26,27.613 24.137,26.925 22.825,26.441 A 37.863,37.863 0 0,1 22.615,26.363 C 22.508,26.323 22.395,26.283 22.28,26.243 Z M 12.17,21 H 7.83 L 4,34 H 7.83 L 8.34,31.66 H 11.66 L 12.17,34 H 16 L 12.17,21 Z M 10,23.86 L 11.149,29.19 H 8.85 L 10,23.86 Z M 37.658,25.81 L 35.948,34 H 33.053 L 31.343,25.81 L 30.684,34 H 27 L 28.71,21 H 32.658 L 34.5,28.8 L 36.342,21 H 40.289 L 42,34 H 38.31 L 37.658,25.81 Z M 44,21 H 47 V 31 H 52 V 34 H 44 V 21 Z" fill="rgb(254, 254, 253)"/>
</svg>
